symbols/web/developer_board_off/materialsymbolsrounded/developer_board_off_wght600gradN25fill1_48px.svg

<svg xmlns="http://www.w3.org/2000/svg" height="48" width="48"><path d="m40.95 36-6.1-6.15v-7.1q0-.35-.225-.55-.225-.2-.575-.2H26.9l-2.6-2.6.8-.8q.2.25.575.4.375.15.775.15H32q.85 0 1.4-.45.55-.45.55-1.25V13.7q0-.8-.55-1.275-.55-.475-1.4-.475h-6.05q-.8 0-1.25.375-.45.375-.6.975v3.55q0 .35.15.725t.4.625l-.75.75-1.1-1.1v-5.1q0-.35-.25-.575-.25-.225-.55-.225h-5.1L10.45 5.5h26.1q1.5 0 2.675 1.175Q40.4 7.85 40.4 9.35V12H42q.65 0 1.125.45t.475 1.15q0 .7-.475 1.125-.475.425-1.125.425h-1.6v7.25h1.65q.65 0 1.1.45.45.45.45 1.15t-.475 1.15q-.475.45-1.125.45h-1.6v7.25h1.65q.65 0 1.1.45.45.45.45 1.1 0 .7-.45 1.15Q42.7 36 42 36Zm-.15 9-2.85-2.8q-.35.15-.675.225-.325.075-.725.075H7.3q-1.6 0-2.75-1.15t-1.15-2.7V9.35q0-.4.1-.725.1-.325.2-.675l-1.35-1.4q-.3-.5-.2-1.025.1-.525.45-.925.5-.45 1.175-.45T4.9 4.6l38.2 38.15q.45.5.45 1.15 0 .65-.45 1.1-.5.5-1.175.5T40.8 45Zm-14.85-9h5.85l-7.75-7.75v5.85q0 .85.525 1.375T25.95 36ZM11.8 36h8.9q.8 0 1.35-.525t.55-1.375v-6.2q0-.35-.125-.7t-.325-.6l-.05-.15q-.3-.2-.65-.35-.35-.15-.75-.15h-8.9q-.85 0-1.375.55T9.9 27.9v6.2q0 .85.525 1.375T11.8 36Zm0-11.5h8.5L9.9 14.1v8.5q0 .85.525 1.375t1.375.525Z"/></svg>

<svg xmlns="http://www.w3.org/2000/svg" height="48" width="48"><path d="M40.95 36 34.85 29.85V22.75Q34.85 22.4 34.625 22.2Q34.4 22 34.05 22H26.9L24.3 19.4L25.1 18.6Q25.3 18.85 25.675 19Q26.05 19.15 26.45 19.15H32Q32.85 19.15 33.4 18.7Q33.95 18.25 33.95 17.45V13.7Q33.95 12.9 33.4 12.425Q32.85 11.95 32 11.95H25.95Q25.15 11.95 24.7 12.325Q24.25 12.7 24.1 13.3V16.85Q24.1 17.2 24.25 17.575Q24.4 17.95 24.65 18.2L23.9 18.95L22.8 17.85V12.75Q22.8 12.4 22.55 12.175Q22.3 11.95 22 11.95H16.9L10.45 5.5H36.55Q38.05 5.5 39.225 6.675Q40.4 7.85 40.4 9.35V12H42Q42.65 12 43.125 12.45Q43.6 12.9 43.6 13.6Q43.6 14.3 43.125 14.725Q42.65 15.15 42 15.15H40.4V22.4H42.05Q42.7 22.4 43.15 22.85Q43.6 23.3 43.6 24Q43.6 24.7 43.125 25.15Q42.65 25.6 42 25.6H40.4V32.85H42.05Q42.7 32.85 43.15 33.3Q43.6 33.75 43.6 34.4Q43.6 35.1 43.15 35.55Q42.7 36 42 36ZM40.8 45 37.95 42.2Q37.6 42.35 37.275 42.425Q36.95 42.5 36.55 42.5H7.3Q5.7 42.5 4.55 41.35Q3.4 40.2 3.4 38.65V9.35Q3.4 8.95 3.5 8.625Q3.6 8.3 3.7 7.95L2.35 6.55Q2.05 6.05 2.15 5.525Q2.25 5 2.6 4.6Q3.1 4.15 3.775 4.15Q4.45 4.15 4.9 4.6L43.1 42.75Q43.55 43.25 43.55 43.9Q43.55 44.55 43.1 45Q42.6 45.5 41.925 45.5Q41.25 45.5 40.8 45ZM25.95 36H31.8Q31.8 36 31.8 36Q31.8 36 31.8 36L24.05 28.25V34.1Q24.05 34.95 24.575 35.475Q25.1 36 25.95 36ZM11.8 36H20.7Q21.5 36 22.05 35.475Q22.6 34.95 22.6 34.1V27.9Q22.6 27.55 22.475 27.2Q22.35 26.85 22.15 26.6L22.1 26.45Q21.8 26.25 21.45 26.1Q21.1 25.95 20.7 25.95H11.8Q10.95 25.95 10.425 26.5Q9.9 27.05 9.9 27.9V34.1Q9.9 34.95 10.425 35.475Q10.95 36 11.8 36ZM11.8 24.5H20.3Q20.3 24.5 20.3 24.5Q20.3 24.5 20.3 24.5L9.9 14.1Q9.9 14.1 9.9 14.1Q9.9 14.1 9.9 14.1V22.6Q9.9 23.45 10.425 23.975Q10.95 24.5 11.8 24.5Z"/></svg>
